X: 100
T:Blue Water Waltz
M:3/4
L:1/4
S:as written
R:40 bar Waltz
O:Kaye MacEachern
K:G
B/c/| d2 B|d2 B|g&gt;f g/a/|gfe|d2 B/c/|dcB|A3|A2 B/c/|!
d2 B|d2 B|g2 g/a/|gfe|d2 B|ABA|G3|G2 g|!
g2 e/f/|gfe|d2 d/e/|dcB|A2A/B/|cBA|B2c|d2 e/f/|!
g2 e/f/|gfe|d2 d/e/|dcB|A2 A/B/|cBA|G3|G2 g|!
g2 e/f/|gfe|d2 d/e/|dcB|A2 A/B/|cBA|G3|G2||

